images/wstETH.svg

<svg height="250" viewBox="0 0 250 250" width="250" xmlns="http://www.w3.org/2000/svg" xmlns:xlink="http://www.w3.org/1999/xlink"><filter id="a" height="100%" width="100%" x="0%" y="0%"><feColorMatrix in="SourceGraphic" type="matrix" values="0 0 0 0 1 0 0 0 0 1 0 0 0 0 1 0 0 0 1 0"/></filter><mask id="b"><g filter="url(#a)"><path d="m0 0h250v250h-250z" fill-opacity=".6"/></g></mask><clipPath id="c"><path d="m0 0h250v250h-250z"/></clipPath><mask id="d"><g filter="url(#a)"><path d="m0 0h250v250h-250z" fill-opacity=".6"/></g></mask><clipPath id="e"><path d="m0 0h250v250h-250z"/></clipPath><mask id="f"><g filter="url(#a)"><path d="m0 0h250v250h-250z" fill-opacity=".2"/></g></mask><clipPath id="g"><path d="m0 0h250v250h-250z"/></clipPath><mask id="h"><g filter="url(#a)"><path d="m0 0h250v250h-250z" fill-opacity=".2"/></g></mask><clipPath id="i"><path d="m0 0h250v250h-250z"/></clipPath><mask id="j"><g filter="url(#a)"><path d="m0 0h250v250h-250z" fill-opacity=".6"/></g></mask><clipPath id="k"><path d="m0 0h250v250h-250z"/></clipPath><mask id="l"><g filter="url(#a)"><path d="m0 0h250v250h-250z" fill-opacity=".6"/></g></mask><clipPath id="m"><path d="m0 0h250v250h-250z"/></clipPath><path d="m0 0h250v250h-250z" fill="#00a3ff"/><path d="m73.726562 116.128906-1.402343 2.148438c-15.785157 24.210937-12.257813 55.921875 8.476562 76.238281 12.199219 11.953125 28.183594 17.929687 44.171875 17.929687 0 0 0 0-51.246094-96.316406zm0 0" fill="#fff"/><g clip-path="url(#c)" mask="url(#b)"><path d="m124.96875 145.402344-51.25-29.273438c51.25 96.316406 51.25 96.316406 51.25 96.316406 0-20.976562 0-45.011718 0-67.042968zm0 0" fill="#fff"/></g><g clip-path="url(#e)" mask="url(#d)"><path d="m176.273438 116.128906 1.402343 2.148438c15.785157 24.210937 12.257813 55.921875-8.476562 76.238281-12.199219 11.953125-28.183594 17.929687-44.171875 17.929687 0 0 0 0 51.246094-96.316406zm0 0" fill="#fff"/></g><g clip-path="url(#g)" mask="url(#f)"><path d="m125.019531 145.402344 51.25-29.273438c-51.246093 96.316406-51.25 96.316406-51.25 96.316406 0-20.976562 0-45.011718 0-67.042968zm0 0" fill="#fff"/></g><g clip-path="url(#i)" mask="url(#h)"><path d="m125.03125 79.996094v50.488281l44.144531-25.226563zm0 0" fill="#fff"/></g><g clip-path="url(#k)" mask="url(#j)"><path d="m125.039062 79.996094-44.179687 25.261718 44.179687 25.226563zm0 0" fill="#fff"/></g><path d="m125.039062 37.535156-44.179687 67.738282 44.179687-25.332032zm0 0" fill="#fff"/><g clip-path="url(#m)" mask="url(#l)"><path d="m125.03125 79.933594 44.175781 25.332031-44.175781-67.769531zm0 0" fill="#fff"/></g></svg>

<svg xmlns="http://www.w3.org/2000/svg" xmlns:xlink="http://www.w3.org/1999/xlink" width="250px" height="250px" viewBox="0 0 250 250" version="1.1">
<defs>
<filter id="alpha" filterUnits="objectBoundingBox" x="0%" y="0%" width="100%" height="100%">
  <feColorMatrix type="matrix" in="SourceGraphic" values="0 0 0 0 1 0 0 0 0 1 0 0 0 0 1 0 0 0 1 0"/>
</filter>
<mask id="mask0">
  <g filter="url(#alpha)">
<rect x="0" y="0" width="250" height="250" style="fill:rgb(0%,0%,0%);fill-opacity:0.6;stroke:none;"/>
  </g>
</mask>
<clipPath id="clip1">
  <rect x="0" y="0" width="250" height="250"/>
</clipPath>
<g id="surface5" clip-path="url(#clip1)">
<path style=" stroke:none;fill-rule:nonzero;fill:rgb(100%,100%,100%);fill-opacity:1;" d="M 124.96875 145.402344 L 73.71875 116.128906 C 124.96875 212.445312 124.96875 212.445312 124.96875 212.445312 C 124.96875 191.46875 124.96875 167.433594 124.96875 145.402344 Z M 124.96875 145.402344 "/>
</g>
<mask id="mask1">
  <g filter="url(#alpha)">
<rect x="0" y="0" width="250" height="250" style="fill:rgb(0%,0%,0%);fill-opacity:0.6;stroke:none;"/>
  </g>
</mask>
<clipPath id="clip2">
  <rect x="0" y="0" width="250" height="250"/>
</clipPath>
<g id="surface8" clip-path="url(#clip2)">
<path style=" stroke:none;fill-rule:nonzero;fill:rgb(100%,100%,100%);fill-opacity:1;" d="M 176.273438 116.128906 L 177.675781 118.277344 C 193.460938 142.488281 189.933594 174.199219 169.199219 194.515625 C 157 206.46875 141.015625 212.445312 125.027344 212.445312 C 125.027344 212.445312 125.027344 212.445312 176.273438 116.128906 Z M 176.273438 116.128906 "/>
</g>
<mask id="mask2">
  <g filter="url(#alpha)">
<rect x="0" y="0" width="250" height="250" style="fill:rgb(0%,0%,0%);fill-opacity:0.2;stroke:none;"/>
  </g>
</mask>
<clipPath id="clip3">
  <rect x="0" y="0" width="250" height="250"/>
</clipPath>
<g id="surface11" clip-path="url(#clip3)">
<path style=" stroke:none;fill-rule:nonzero;fill:rgb(100%,100%,100%);fill-opacity:1;" d="M 125.019531 145.402344 L 176.269531 116.128906 C 125.023438 212.445312 125.019531 212.445312 125.019531 212.445312 C 125.019531 191.46875 125.019531 167.433594 125.019531 145.402344 Z M 125.019531 145.402344 "/>
</g>
<mask id="mask3">
  <g filter="url(#alpha)">
<rect x="0" y="0" width="250" height="250" style="fill:rgb(0%,0%,0%);fill-opacity:0.2;stroke:none;"/>
  </g>
</mask>
<clipPath id="clip4">
  <rect x="0" y="0" width="250" height="250"/>
</clipPath>
<g id="surface14" clip-path="url(#clip4)">
<path style=" stroke:none;fill-rule:nonzero;fill:rgb(100%,100%,100%);fill-opacity:1;" d="M 125.03125 79.996094 L 125.03125 130.484375 L 169.175781 105.257812 Z M 125.03125 79.996094 "/>
</g>
<mask id="mask4">
  <g filter="url(#alpha)">
<rect x="0" y="0" width="250" height="250" style="fill:rgb(0%,0%,0%);fill-opacity:0.6;stroke:none;"/>
  </g>
</mask>
<clipPath id="clip5">
  <rect x="0" y="0" width="250" height="250"/>
</clipPath>
<g id="surface17" clip-path="url(#clip5)">
<path style=" stroke:none;fill-rule:nonzero;fill:rgb(100%,100%,100%);fill-opacity:1;" d="M 125.039062 79.996094 L 80.859375 105.257812 L 125.039062 130.484375 Z M 125.039062 79.996094 "/>
</g>
<mask id="mask5">
  <g filter="url(#alpha)">
<rect x="0" y="0" width="250" height="250" style="fill:rgb(0%,0%,0%);fill-opacity:0.6;stroke:none;"/>
  </g>
</mask>
<clipPath id="clip6">
  <rect x="0" y="0" width="250" height="250"/>
</clipPath>
<g id="surface20" clip-path="url(#clip6)">
<path style=" stroke:none;fill-rule:nonzero;fill:rgb(100%,100%,100%);fill-opacity:1;" d="M 125.03125 79.933594 L 169.207031 105.265625 L 125.03125 37.496094 Z M 125.03125 79.933594 "/>
</g>
</defs>
<g id="surface1">
<rect x="0" y="0" width="250" height="250" style="fill:rgb(0%,63.921571%,100%);fill-opacity:1;stroke:none;"/>
<path style=" stroke:none;fill-rule:nonzero;fill:rgb(100%,100%,100%);fill-opacity:1;" d="M 73.726562 116.128906 L 72.324219 118.277344 C 56.539062 142.488281 60.066406 174.199219 80.800781 194.515625 C 93 206.46875 108.984375 212.445312 124.972656 212.445312 C 124.972656 212.445312 124.972656 212.445312 73.726562 116.128906 Z M 73.726562 116.128906 "/>
<use xlink:href="#surface5" mask="url(#mask0)"/>
<use xlink:href="#surface8" mask="url(#mask1)"/>
<use xlink:href="#surface11" mask="url(#mask2)"/>
<use xlink:href="#surface14" mask="url(#mask3)"/>
<use xlink:href="#surface17" mask="url(#mask4)"/>
<path style=" stroke:none;fill-rule:nonzero;fill:rgb(100%,100%,100%);fill-opacity:1;" d="M 125.039062 37.535156 L 80.859375 105.273438 L 125.039062 79.941406 Z M 125.039062 37.535156 "/>
<use xlink:href="#surface20" mask="url(#mask5)"/>
</g>
</svg>
